actions/16/draw-ellipse-segment.svg

<svg xmlns="http://www.w3.org/2000/svg" viewBox="0 0 16 16">
  <defs id="defs3051">
    <style type="text/css" id="current-color-scheme">
      .ColorScheme-Text {
        color:#808080;
      }
      </style>
  </defs>
 <path style="fill:currentColor;fill-opacity:1;stroke:none" 
     d="m5.098 2.764l-.027.016c-1.891 1.058-3.065 3.054-3.07 5.221 0 3.314 2.686 6 6 6 3.314 0 6-2.686 6-6-.002-.335-.032-.67-.09-1h-5.428l-2.754-3.447c0 0-.632-.787-.631-.789m-.219 1.338l3.121 3.898h5c0 2.761-2.239 5-5 5-2.761 0-5-2.239-5-5 .002-1.517.694-2.951 1.879-3.898"
     class="ColorScheme-Text"
     />
 <path style="fill:currentColor;fill-opacity:0.5;stroke:none" 
     d="m7.607 12.976c-1.748-.153-3.252-1.16-4.054-2.716-.531-1.03-.678-2.292-.401-3.423.231-.942.728-1.799 1.42-2.452.263-.248.302-.275.335-.229.014.019.716.896 1.56 1.949l1.535 1.915h4.991l-.015.26c-.13 2.269-1.775 4.165-4 4.612-.423.085-.975.119-1.37.085"
     class="ColorScheme-Text"
     />
</svg>

<svg xmlns="http://www.w3.org/2000/svg" version="1.1" viewBox="0 0 16 16">
 <defs>
  <style id="current-color-scheme" type="text/css">
   .ColorScheme-Text { color:#808080; }
  </style>
 </defs>
 <path class="ColorScheme-Text" d="M 5.098,2.764 5.071,2.78 C 3.18,3.838 2.006,5.834 2.001,8.001 2.001,11.315 4.687,14.001 8.001,14.001 11.315,14.001 14.001,11.315 14.001,8.001 13.999,7.666 13.969,7.331 13.911,7.001 H 8.483 L 5.729,3.554 C 5.729,3.554 5.097,2.767 5.098,2.765 M 4.879,4.103 8,8.001 H 13 C 13,10.762 10.761,13.001 8,13.001 5.239,13.001 3,10.762 3,8.001 3.002,6.484 3.694,5.05 4.879,4.103" style="color:#808080;fill:currentColor"/>
 <path class="ColorScheme-Text" d="M 7.607,12.976 C 5.859,12.823 4.355,11.816 3.553,10.26 3.022,9.23 2.875,7.968 3.152,6.837 3.383,5.895 3.88,5.038 4.572,4.385 4.835,4.137 4.874,4.11 4.907,4.156 4.921,4.175 5.623,5.052 6.467,6.105 L 8.002,8.02 H 12.993 L 12.978,8.28 C 12.848,10.549 11.203,12.445 8.978,12.892 8.555,12.977 8.003,13.011 7.608,12.977" style="color:#808080;fill:currentColor;fill-opacity:0.5"/>
</svg>
